; generated by Slic3r 1.2.9 on 2015-12-09 at 20:33:37

; external perimeters extrusion width = 0.45mm
; perimeters extrusion width = 0.45mm
; infill extrusion width = 0.45mm
; solid infill extrusion width = 0.45mm
; top infill extrusion width = 0.45mm

M107
M190 S105 ; set bed temperature
M104 S220 ; set temperature
G28 ; home all axes
G1 Z5 F5000 ; lift nozzle

M109 S220 ; wait for temperature to be reached
G21 ; set units to millimeters
G90 ; use absolute coordinates
M82 ; use absolute distances for extrusion
G92 E0
G1 E-2.00000 F2400.00000
G92 E0
G1 Z0.300 F7800.000
G1 X83.687 Y71.263 F7800.000
G1 Z0.250 F7800.000
G1 E2.00000 F2400.00000
G1 X85.383 Y70.099 E2.03247 F900.000
G1 X87.500 Y69.661 E2.06660
G1 X107.500 Y69.661 E2.38233
G1 X109.518 Y70.057 E2.41480
G1 X111.237 Y71.187 E2.44727 F900.000
G1 X112.401 Y72.883 E2.47974
G1 X112.839 Y75.000 E2.51387
G1 X112.839 Y95.000 E2.82960
G1 X112.443 Y97.018 E2.86207
G1 X111.313 Y98.737 E2.89454
G1 X109.617 Y99.901 E2.92701
G1 X107.500 Y100.339 E2.96114
G1 X87.500 Y100.339 E3.27687
G1 X85.482 Y99.943 E3.30934
G1 X83.763 Y98.813 E3.34181
G1 X82.599 Y97.117 E3.37429
G1 X82.161 Y95.000 E3.40841
G1 X82.161 Y75.000 E3.72414
G1 X82.557 Y72.982 E3.75661
G1 X83.654 Y71.313 E3.78814
G1 X84.074 Y71.532 F7800.000
G1 X84.127 Y71.456 E3.78959 F900.000
G1 X85.796 Y70.413 E3.82067
G1 X87.500 Y70.107 E3.84799
G1 X107.500 Y70.107 E4.16372
G1 X109.428 Y70.503 E4.19479
G1 X111.044 Y71.627 E4.22586 F900.000
G1 X112.087 Y73.296 E4.25693
G1 X112.393 Y75.000 E4.28426
G1 X112.393 Y95.000 E4.59999
G1 X111.997 Y96.928 E4.63106
G1 X110.873 Y98.544 E4.66213
G1 X109.204 Y99.587 E4.69320
G1 X107.500 Y99.893 E4.72053
G1 X87.500 Y99.893 E5.03625
G1 X85.572 Y99.497 E5.06733
G1 X83.956 Y98.373 E5.09840
G1 X82.913 Y96.704 E5.12947
G1 X82.607 Y95.000 E5.15679
G1 X82.607 Y75.000 E5.47252
G1 X83.003 Y73.072 E5.50359
G1 X84.040 Y71.581 E5.53226
G1 X84.453 Y71.812 F7800.000
G1 X84.565 Y71.660 E5.53525 F900.000
G1 X86.204 Y70.747 E5.56486
G1 X87.500 Y70.554 E5.58555
G1 X107.500 Y70.554 E5.90128
G1 X109.333 Y70.949 E5.93088
G1 X110.840 Y72.065 E5.96049 F900.000
G1 X111.753 Y73.704 E5.99010
G1 X111.946 Y75.000 E6.01079
G1 X111.946 Y95.000 E6.32652
G1 X111.551 Y96.833 E6.35612
G1 X110.435 Y98.340 E6.38573
G1 X108.796 Y99.253 E6.41533
G1 X107.500 Y99.446 E6.43603
G1 X87.500 Y99.446 E6.75175
G1 X85.667 Y99.051 E6.78136
G1 X84.160 Y97.935 E6.81096
G1 X83.247 Y96.296 E6.84057
G1 X83.054 Y95.000 E6.86126
G1 X83.054 Y75.000 E7.17699
G1 X83.449 Y73.167 E7.20660
G1 X84.417 Y71.860 E7.23226
G1 E5.23226 F2400.00000
G92 E0
G1 Z0.550 F7800.000
G1 X106.357 Y93.857 F7800.000
G1 Z0.250 F7800.000
G1 E2.00000 F2400.00000
G1 X88.643 Y93.857 E2.27965 F900.000
G1 X88.643 Y76.143 E2.55930
G1 X106.357 Y76.143 E2.83895
G1 X106.357 Y93.797 E3.11765
G1 X106.804 Y94.304 F7800.000
G1 X88.196 Y94.304 E3.41139 F900.000
G1 X88.196 Y75.696 E3.70514
G1 X106.804 Y75.696 E3.99888
G1 X106.804 Y94.244 E4.29167
G1 X107.250 Y94.750 F7800.000
G1 X87.750 Y94.750 E4.59951 F900.000
G1 X87.750 Y75.250 E4.90734
G1 X107.250 Y75.250 E5.21518
G1 X107.250 Y94.690 E5.52206
G1 X106.904 Y94.550 F7800.000
G1 X106.093 Y76.637 F7800.000
G1 X105.863 Y76.407 E5.52725 F900.000
G1 X105.223 Y76.407 E5.53749
G1 X106.093 Y77.277 E5.55716
G1 X106.093 Y77.916 E5.56740
G1 X104.584 Y76.407 E5.60155
G1 X103.944 Y76.407 E5.61179
G1 X106.093 Y78.556 E5.66042
G1 X106.093 Y79.196 E5.67066
G1 X103.304 Y76.407 E5.73377
G1 X102.664 Y76.407 E5.74400
G1 X106.093 Y79.836 E5.82159
G1 X106.093 Y80.476 E5.83183
G1 X102.024 Y76.407 E5.92390
G1 X101.384 Y76.407 E5.93414
G1 X106.093 Y81.116 E6.04069
G1 X106.093 Y81.756 E6.05092
G1 X100.744 Y76.407 E6.17195
G1 X100.105 Y76.407 E6.18219
G1 X106.093 Y82.395 E6.31770
G1 X106.093 Y83.035 E6.32794
G1 X99.465 Y76.407 E6.47792
G1 X98.825 Y76.407 E6.48816
G1 X106.093 Y83.675 E6.65263
G1 X106.093 Y84.315 E6.66287
G1 X98.185 Y76.407 E6.84181
G1 X97.545 Y76.407 E6.85205
G1 X106.093 Y84.955 E7.04547
G1 X106.093 Y85.595 E7.05571
G1 X96.905 Y76.407 E7.26362
G1 X96.266 Y76.407 E7.27386
G1 X106.093 Y86.234 E7.49624
G1 X106.093 Y86.874 E7.50648
G1 X95.626 Y76.407 E7.74334
G1 X94.986 Y76.407 E7.75358
G1 X106.093 Y87.514 E8.00493
G1 X106.093 Y88.154 E8.01516
G1 X94.346 Y76.407 E8.28099
G1 X93.706 Y76.407 E8.29123
G1 X106.093 Y88.794 E8.57153
G1 X106.093 Y89.434 E8.58177
G1 X93.066 Y76.407 E8.87655
G1 X92.427 Y76.407 E8.88679
G1 X106.093 Y90.073 E9.19605
G1 X106.093 Y90.713 E9.20629
G1 X91.787 Y76.407 E9.53003
G1 X91.147 Y76.407 E9.54027
G1 X106.093 Y91.353 E9.87849
G1 X106.093 Y91.993 E9.88873
G1 X90.507 Y76.407 E10.24143
G1 X89.867 Y76.407 E10.25167
G1 X106.093 Y92.633 E10.61885
G1 X106.093 Y93.273 E10.62909
G1 X89.227 Y76.407 E11.01075
G1 X88.907 Y76.727 E11.01799
G1 X105.773 Y93.593 E11.39964
G1 X105.133 Y93.593 E11.40988
G1 X88.907 Y77.367 E11.77706
G1 X88.907 Y78.007 E11.78730
G1 X104.493 Y93.593 E12.14000
G1 X103.853 Y93.593 E12.15024
G1 X88.907 Y78.647 E12.48846
G1 X88.907 Y79.287 E12.49870
G1 X103.213 Y93.593 E12.82244
G1 X102.573 Y93.593 E12.83268
G1 X88.907 Y79.927 E13.14194
G1 X88.907 Y80.566 E13.15218
G1 X101.934 Y93.593 E13.44696
G1 X101.294 Y93.593 E13.45720
G1 X88.907 Y81.206 E13.73750
G1 X88.907 Y81.846 E13.74774
G1 X100.654 Y93.593 E14.01356
G1 X100.014 Y93.593 E14.02380
G1 X88.907 Y82.486 E14.27514
G1 X88.907 Y83.126 E14.28538
G1 X99.374 Y93.593 E14.52224
G1 X98.734 Y93.593 E14.53248
G1 X88.907 Y83.766 E14.75486
G1 X88.907 Y84.405 E14.76510
G1 X98.095 Y93.593 E14.97301
G1 X97.455 Y93.593 E14.98324
G1 X88.907 Y85.045 E15.17667
G1 X88.907 Y85.685 E15.18691
G1 X96.815 Y93.593 E15.36585
G1 X96.175 Y93.593 E15.37609
G1 X88.907 Y86.325 E15.54056
G1 X88.907 Y86.965 E15.55079
G1 X95.535 Y93.593 E15.70078
G1 X94.895 Y93.593 E15.71102
G1 X88.907 Y87.605 E15.84652
G1 X88.907 Y88.245 E15.85676
G1 X94.255 Y93.593 E15.97779
G1 X93.616 Y93.593 E15.98803
G1 X88.907 Y88.884 E16.09457
G1 X88.907 Y89.524 E16.10481
G1 X92.976 Y93.593 E16.19688
G1 X92.336 Y93.593 E16.20712
G1 X88.907 Y90.164 E16.28471
G1 X88.907 Y90.804 E16.29494
G1 X91.696 Y93.593 E16.35805
G1 X91.056 Y93.593 E16.36829
G1 X88.907 Y91.444 E16.41692
G1 X88.907 Y92.084 E16.42716
G1 X90.416 Y93.593 E16.46131
G1 X89.777 Y93.593 E16.47155
G1 X88.907 Y92.723 E16.49122
G1 X88.907 Y93.363 E16.50145
G1 X89.137 Y93.593 E16.50664
M104 S215 ; set temperature
G1 E14.50664 F2400.00000
G92 E0
G1 Z0.550 F7800.000
G1 X106.504 Y94.004 F7800.000
G1 E2.00000 F2400.00000
G1 X88.496 Y94.004 E2.29471 F3600.000
G1 X88.496 Y75.996 E2.58943
G1 X106.504 Y75.996 E2.88414
G1 X106.504 Y93.944 E3.17788
G1 X106.889 Y94.389 F7800.000
G1 X88.111 Y94.389 E3.48521 F3600.000
G1 X88.111 Y75.611 E3.79255
G1 X106.889 Y75.611 E4.09989
G1 X106.889 Y94.329 E4.40624
G1 X107.275 Y94.775 F7800.000
G1 X87.725 Y94.775 E4.72620 F1800.000
G1 X87.725 Y75.225 E5.04616
G1 X107.275 Y75.225 E5.36612
G1 X107.275 Y94.715 E5.68510
G1 X106.929 Y94.575 F7800.000
G1 X106.074 Y93.778 F7800.000
G1 X106.278 Y93.574 E5.68986 F1200.000
G1 X106.278 Y93.023 E5.69896
G1 X105.523 Y93.778 E5.71660
G1 X104.972 Y93.778 E5.72571
G1 X106.278 Y92.472 E5.75623
G1 X106.278 Y91.922 E5.76533
G1 X104.422 Y93.778 E5.80873
G1 X103.871 Y93.778 E5.81784
G1 X106.278 Y91.371 E5.87411
G1 X106.278 Y90.820 E5.88322
G1 X103.320 Y93.778 E5.95237
G1 X102.769 Y93.778 E5.96148
G1 X106.278 Y90.269 E6.04351
G1 X106.278 Y89.718 E6.05261
G1 X102.218 Y93.778 E6.14752
G1 X101.667 Y93.778 E6.15663
G1 X106.278 Y89.167 E6.26442
G1 X106.278 Y88.616 E6.27353
G1 X101.116 Y93.778 E6.39419
G1 X100.566 Y93.778 E6.40330
G1 X106.278 Y88.066 E6.53685
G1 X106.278 Y87.515 E6.54595
G1 X100.015 Y93.778 E6.69238
G1 X99.464 Y93.778 E6.70148
G1 X106.278 Y86.964 E6.86079
G1 X106.278 Y86.413 E6.86989
G1 X98.913 Y93.778 E7.04208
G1 X98.362 Y93.778 E7.05118
G1 X106.278 Y85.862 E7.23624
G1 X106.278 Y85.311 E7.24535
G1 X97.811 Y93.778 E7.44329
G1 X97.260 Y93.778 E7.45239
G1 X106.278 Y84.760 E7.66321
G1 X106.278 Y84.210 E7.67232
G1 X96.710 Y93.778 E7.89601
G1 X96.159 Y93.778 E7.90512
G1 X106.278 Y83.659 E8.14170
G1 X106.278 Y83.108 E8.15080
G1 X95.608 Y93.778 E8.40026
G1 X95.057 Y93.778 E8.40936
G1 X106.278 Y82.557 E8.67169
G1 X106.278 Y82.006 E8.68080
G1 X94.506 Y93.778 E8.95601
G1 X93.955 Y93.778 E8.96512
G1 X106.278 Y81.455 E9.25321
G1 X106.278 Y80.904 E9.26231
G1 X93.404 Y93.778 E9.56328
G1 X92.854 Y93.778 E9.57239
G1 X106.278 Y80.354 E9.88623
G1 X106.278 Y79.803 E9.89534
G1 X92.303 Y93.778 E10.22207
G1 X91.752 Y93.778 E10.23117
G1 X106.278 Y79.252 E10.57078
G1 X106.278 Y78.701 E10.57988
G1 X91.201 Y93.778 E10.93236
G1 X90.650 Y93.778 E10.94147
G1 X106.278 Y78.150 E11.30683
G1 X106.278 Y77.599 E11.31594
G1 X90.099 Y93.778 E11.69418
G1 X89.548 Y93.778 E11.70328
G1 X106.278 Y77.048 E12.09440
G1 X106.278 Y76.498 E12.10351
G1 X88.998 Y93.778 E12.50751
G1 X88.722 Y93.502 E12.51394
G1 X106.002 Y76.222 E12.91794
G1 X105.451 Y76.222 E12.92705
G1 X88.722 Y92.951 E13.31816
G1 X88.722 Y92.401 E13.32727
G1 X104.901 Y76.222 E13.70551
G1 X104.350 Y76.222 E13.71461
G1 X88.722 Y91.850 E14.07997
G1 X88.722 Y91.299 E14.08908
G1 X103.799 Y76.222 E14.44156
G1 X103.248 Y76.222 E14.45067
G1 X88.722 Y90.748 E14.79027
G1 X88.722 Y90.197 E14.79938
G1 X102.697 Y76.222 E15.12610
G1 X102.146 Y76.222 E15.13521
G1 X88.722 Y89.646 E15.44905
G1 X88.722 Y89.095 E15.45816
G1 X101.595 Y76.222 E15.75913
G1 X101.045 Y76.222 E15.76823
G1 X88.722 Y88.545 E16.05632
G1 X88.722 Y87.994 E16.06543
G1 X100.494 Y76.222 E16.34064
G1 X99.943 Y76.222 E16.34974
G1 X88.722 Y87.443 E16.61208
G1 X88.722 Y86.892 E16.62118
G1 X99.392 Y76.222 E16.87063
G1 X98.841 Y76.222 E16.87974
G1 X88.722 Y86.341 E17.11631
G1 X88.722 Y85.790 E17.12542
G1 X98.290 Y76.222 E17.34912
G1 X97.739 Y76.222 E17.35822
G1 X88.722 Y85.239 E17.56904
G1 X88.722 Y84.689 E17.57815
G1 X97.189 Y76.222 E17.77608
G1 X96.638 Y76.222 E17.78519
G1 X88.722 Y84.138 E17.97025
G1 X88.722 Y83.587 E17.97936
G1 X96.087 Y76.222 E18.15154
G1 X95.536 Y76.222 E18.16064
G1 X88.722 Y83.036 E18.31995
G1 X88.722 Y82.485 E18.32905
G1 X94.985 Y76.222 E18.47548
G1 X94.434 Y76.222 E18.48458
G1 X88.722 Y81.934 E18.61813
G1 X88.722 Y81.383 E18.62723
G1 X93.883 Y76.222 E18.74790
G1 X93.333 Y76.222 E18.75701
G1 X88.722 Y80.833 E18.86480
G1 X88.722 Y80.282 E18.87390
G1 X92.782 Y76.222 E18.96881
G1 X92.231 Y76.222 E18.97792
G1 X88.722 Y79.731 E19.05995
G1 X88.722 Y79.180 E19.06906
G1 X91.680 Y76.222 E19.13821
G1 X91.129 Y76.222 E19.14731
G1 X88.722 Y78.629 E19.20359
G1 X88.722 Y78.078 E19.21269
G1 X90.578 Y76.222 E19.25609
G1 X90.027 Y76.222 E19.26520
G1 X88.722 Y77.527 E19.29571
G1 X88.722 Y76.977 E19.30482
G1 X89.477 Y76.222 E19.32246
G1 X88.926 Y76.222 E19.33156
G1 X88.722 Y76.426 E19.33632
G1 E17.33632 F2400.00000
G92 E0
G1 Z0.850 F7800.000
G1 X106.504 Y94.004 F7800.000
G1 E2.00000 F2400.00000
G1 X88.496 Y94.004 E2.29471 F3600.000
G1 X88.496 Y75.996 E2.58943
G1 X106.504 Y75.996 E2.88414
G1 X106.504 Y93.944 E3.17788
G1 X106.889 Y94.389 F7800.000
G1 X88.111 Y94.389 E3.48521 F3600.000
G1 X88.111 Y75.611 E3.79255
G1 X106.889 Y75.611 E4.09989
G1 X106.889 Y94.329 E4.40624
G1 X107.275 Y94.775 F7800.000
G1 X87.725 Y94.775 E4.72620 F1800.000
G1 X87.725 Y75.225 E5.04616
G1 X107.275 Y75.225 E5.36612
G1 X107.275 Y94.715 E5.68510
G1 X106.929 Y94.575 F7800.000
G1 X106.278 Y76.426 F7800.000
G1 X106.074 Y76.222 E5.68986 F1200.000
G1 X105.523 Y76.222 E5.69896
G1 X106.278 Y76.977 E5.71660
G1 X106.278 Y77.528 E5.72571
G1 X104.972 Y76.222 E5.75623
G1 X104.422 Y76.222 E5.76533
G1 X106.278 Y78.078 E5.80873
G1 X106.278 Y78.629 E5.81784
G1 X103.871 Y76.222 E5.87411
G1 X103.320 Y76.222 E5.88322
G1 X106.278 Y79.180 E5.95237
G1 X106.278 Y79.731 E5.96148
G1 X102.769 Y76.222 E6.04351
G1 X102.218 Y76.222 E6.05261
G1 X106.278 Y80.282 E6.14752
G1 X106.278 Y80.833 E6.15663
G1 X101.667 Y76.222 E6.26442
G1 X101.116 Y76.222 E6.27353
G1 X106.278 Y81.384 E6.39419
G1 X106.278 Y81.934 E6.40330
G1 X100.566 Y76.222 E6.53685
G1 X100.015 Y76.222 E6.54595
G1 X106.278 Y82.485 E6.69238
G1 X106.278 Y83.036 E6.70148
G1 X99.464 Y76.222 E6.86079
G1 X98.913 Y76.222 E6.86989
G1 X106.278 Y83.587 E7.04208
G1 X106.278 Y84.138 E7.05118
G1 X98.362 Y76.222 E7.23624
G1 X97.811 Y76.222 E7.24535
G1 X106.278 Y84.689 E7.44329
G1 X106.278 Y85.240 E7.45239
G1 X97.260 Y76.222 E7.66321
G1 X96.710 Y76.222 E7.67232
G1 X106.278 Y85.790 E7.89602
G1 X106.278 Y86.341 E7.90512
G1 X96.159 Y76.222 E8.14170
G1 X95.608 Y76.222 E8.15080
G1 X106.278 Y86.892 E8.40026
G1 X106.278 Y87.443 E8.40936
G1 X95.057 Y76.222 E8.67170
G1 X94.506 Y76.222 E8.68080
G1 X106.278 Y87.994 E8.95601
G1 X106.278 Y88.545 E8.96512
G1 X93.955 Y76.222 E9.25321
G1 X93.404 Y76.222 E9.26231
G1 X106.278 Y89.096 E9.56328
G1 X106.278 Y89.646 E9.57239
G1 X92.854 Y76.222 E9.88624
G1 X92.303 Y76.222 E9.89534
G1 X106.278 Y90.197 E10.22207
G1 X106.278 Y90.748 E10.23117
G1 X91.752 Y76.222 E10.57078
G1 X91.201 Y76.222 E10.57988
G1 X106.278 Y91.299 E10.93237
G1 X106.278 Y91.850 E10.94147
G1 X90.650 Y76.222 E11.30683
G1 X90.099 Y76.222 E11.31594
G1 X106.278 Y92.401 E11.69418
G1 X106.278 Y92.952 E11.70329
G1 X89.548 Y76.222 E12.09440
G1 X88.998 Y76.222 E12.10351
G1 X106.278 Y93.502 E12.50751
G1 X106.002 Y93.778 E12.51395
G1 X88.722 Y76.498 E12.91794
G1 X88.722 Y77.048 E12.92705
G1 X105.451 Y93.778 E13.31816
G1 X104.901 Y93.778 E13.32727
G1 X88.722 Y77.599 E13.70551
G1 X88.722 Y78.150 E13.71462
G1 X104.350 Y93.778 E14.07998
G1 X103.799 Y93.778 E14.08908
G1 X88.722 Y78.701 E14.44156
G1 X88.722 Y79.252 E14.45067
G1 X103.248 Y93.778 E14.79027
G1 X102.697 Y93.778 E14.79938
G1 X88.722 Y79.803 E15.12610
G1 X88.722 Y80.354 E15.13521
G1 X102.146 Y93.778 E15.44905
G1 X101.595 Y93.778 E15.45816
G1 X88.722 Y80.905 E15.75913
G1 X88.722 Y81.455 E15.76823
G1 X101.045 Y93.778 E16.05632
G1 X100.494 Y93.778 E16.06543
G1 X88.722 Y82.006 E16.34064
G1 X88.722 Y82.557 E16.34975
G1 X99.943 Y93.778 E16.61208
G1 X99.392 Y93.778 E16.62118
G1 X88.722 Y83.108 E16.87064
G1 X88.722 Y83.659 E16.87974
G1 X98.841 Y93.778 E17.11632
G1 X98.290 Y93.778 E17.12542
G1 X88.722 Y84.210 E17.34912
G1 X88.722 Y84.761 E17.35822
G1 X97.739 Y93.778 E17.56904
G1 X97.189 Y93.778 E17.57815
G1 X88.722 Y85.311 E17.77609
G1 X88.722 Y85.862 E17.78519
G1 X96.638 Y93.778 E17.97025
G1 X96.087 Y93.778 E17.97936
G1 X88.722 Y86.413 E18.15154
G1 X88.722 Y86.964 E18.16065
G1 X95.536 Y93.778 E18.31995
G1 X94.985 Y93.778 E18.32905
G1 X88.722 Y87.515 E18.47548
G1 X88.722 Y88.066 E18.48458
G1 X94.434 Y93.778 E18.61813
G1 X93.883 Y93.778 E18.62724
G1 X88.722 Y88.617 E18.74790
G1 X88.722 Y89.167 E18.75701
G1 X93.333 Y93.778 E18.86480
G1 X92.782 Y93.778 E18.87390
G1 X88.722 Y89.718 E18.96881
G1 X88.722 Y90.269 E18.97792
G1 X92.231 Y93.778 E19.05995
G1 X91.680 Y93.778 E19.06906
G1 X88.722 Y90.820 E19.13821
G1 X88.722 Y91.371 E19.14732
G1 X91.129 Y93.778 E19.20359
G1 X90.578 Y93.778 E19.21270
G1 X88.722 Y91.922 E19.25609
G1 X88.722 Y92.473 E19.26520
G1 X90.027 Y93.778 E19.29571
G1 X89.477 Y93.778 E19.30482
G1 X88.722 Y93.023 E19.32246
G1 X88.722 Y93.574 E19.33156
G1 X88.926 Y93.778 E19.33632
M106 S249.9
G1 E17.33632 F2400.00000
G92 E0
G1 Z1.150 F7800.000
G1 X106.504 Y94.004 F7800.000
G1 E2.00000 F2400.00000
G1 X88.496 Y94.004 E2.29471 F3600.000
G1 X88.496 Y75.996 E2.58943
G1 X106.504 Y75.996 E2.88414
G1 X106.504 Y93.944 E3.17788
G1 X106.889 Y94.389 F7800.000
G1 X88.111 Y94.389 E3.48521 F3600.000
G1 X88.111 Y75.611 E3.79255
G1 X106.889 Y75.611 E4.09989
G1 X106.889 Y94.329 E4.40624
G1 X107.275 Y94.775 F7800.000
G1 X87.725 Y94.775 E4.72620 F1800.000
G1 X87.725 Y75.225 E5.04616
G1 X107.275 Y75.225 E5.36612
G1 X107.275 Y94.715 E5.68510
G1 X106.929 Y94.575 F7800.000
G1 X88.824 Y90.274 F7800.000
G1 X91.205 Y90.274 E5.72743 F4200.000
G1 X91.507 Y90.576 E5.73502
G1 X95.062 Y90.576 E5.79821
G1 X95.363 Y90.274 E5.80579
G1 X98.918 Y90.274 E5.86898
G1 X99.219 Y90.576 E5.87657
G1 X102.774 Y90.576 E5.93976
G1 X103.076 Y90.274 E5.94735
G1 X106.176 Y90.274 E6.00247
G1 X106.176 Y86.719 E6.06566
G1 X103.076 Y86.719 E6.12077
G1 X102.774 Y86.418 E6.12836
G1 X99.219 Y86.418 E6.19155
G1 X98.918 Y86.719 E6.19914
G1 X95.363 Y86.719 E6.26233
G1 X95.062 Y86.418 E6.26991
G1 X91.507 Y86.418 E6.33310
G1 X91.205 Y86.719 E6.34069
